!!!COM: Anonymous
!!!OTL: Par Dieu ma dame c'est a tort
!!!AGN: Song; Chanson; Virelai
!!!SCT: Ano3120
!!!SCA: Ano3120
!!!SMS: Dijon Chansonnier
!!!folio: 125v-127r
!!!SMS2: Nivelles
!!!voices: 3
**kern	**kern	**kern
*staff3	*staff2	*staff1
*Ivox	*Ivox	*Ivox
*I"Contra	*I"Tenor	*I"Discantus
*I'C	*I'T	*I'D
*clefF4	*clefGv2	*clefG2
*k[b-]	*k[b-]	*k[b-]
*M3/1	*M3/1	*M3/1
*met(O)	*met(O)	*met(O)
=1-	=1-	=1-
0.r	0.r	0.r
=2	=2	=2
1r	1r	1r
1r	1r	1r
1C	1c	1c
=3	=3	=3
1.AA	1.c	1.c
2BB-	2B-	2d
1C	1G	1e
=4	=4	=4
1FF	2F	1f
.	2D	.
2r	1C	2e
2FF	.	2c
2BB-	2.F	2d
2C	.	4c
.	4E	4B-
=5	=5	=5
2D	2F	2A
2E-i	2.G	1G
1C	.	.
.	4F	.
.	2E	2.c
1GG	1D	.
.	.	4Bni
.	.	4Bni
.	.	4A
=6	=6	=6
2r	0C	1c
1G	.	.
.	.	1r
2E	.	.
2G	1C	1e
2A	.	.
=7	=7	=7
2B-	1BB-	1d
1G	.	.
.	2C	2e
1c	2E	1g
.	1D	.
2B-	.	2f
=8	=8	=8
2c	1C	2e
4B-	.	4d
4A	.	4c
1G	2r	1B-
.	2G	.
2F	2A	4c
.	.	4d
4E	2c	2e
4C	.	.
=9	=9	=9
2D	2B-	2d
2.C	2.e-i	2.g
4D	4d	4f
2E	1c	2e
2F	.	1d
2G	2Bni	.
=10	=10	=10
0C	1c	2r
.	.	2e
.	2r	2e
.	2G	2e
2r	2A	2.f
2D	2B-	.
.	.	8eL
.	.	8dJ
=11	=11	=11
2E	1.c	2c
2.F	.	2.a
4E	.	4g
2F	2A	1f
1C	1G	.
.	.	2e
=12	=12	=12
0FF	0F	1f
.	.	1r
2F	2A	1f
2D	2B-	.
=13	=13	=13
1C	1.c	1.e
1E	.	.
.	2B-	2d
1F	2.A	1c
.	4G	.
=14	=14	=14
2r	1G	1B-
2G	.	.
2A	1r	2c
2B-	.	2d
2G	1C	2e
4F	.	[2g
4E	.	.
=15	=15	=15
1D	1BB-	2g]
.	.	2f
1C	2C	2e
.	2E	4d
.	.	4c
2r	2D	2.B-
2GG	[2G	.
.	.	4c
=16	=16	=16
2C	2G]	2e
2D	2F	2.d
2BB-	2G	.
.	.	4c
2C	2E	1c
1GG	1D	.
.	.	2Bni
=17	=17	=17
1.G	0C	1c
.	.	2r
2E	.	1c
1D	1r	.
.	.	2B-
=18	=18	=18
1C	2r	2c
.	1C	2e
1GG	.	1d
.	2BB-	.
1G	2C	2e
.	2E	[2g
=19	=19	=19
1A	1D	2g]
.	.	2f
1G	2E	2g
.	1G	2e
1r	.	1d
.	2F	.
=20	=20	=20
1C	2G	2r
.	4F	2g
.	4E	.
2D	2D	2.f
2.BB-	1B-	.
.	.	4e
.	.	2d
4AA	.	.
2FF	2A	2c
=21	=21	=21
4BB-	2G	2B-
4C	.	.
1D	4F	1A
.	4E	.
.	2D	.
2BB-	2F	1d
1C	1E	.
.	.	2c
=22	=22	=22
0GG	2D	1d
.	1G	.
.	.	2r
.	2E	1g
2r	1D	.
2BB-	.	2f
=23	=23	=23
2.C	1C	2.e
4AA	.	4d
2BB-	2r	2d
2.C	1c	2e
.	.	1c
4AA	.	.
2C	2A	.
=24	=24	=24
1GG	2.B-	2r
.	.	1g
.	4G	.
1C	2G	.
.	1c	2e
1GG	.	1d
.	2B-	.
=25	=25	=25
2r	2A	2.c
2AA	1F	.
.	.	4d
2BB-	.	2f
2GG	2E	2g
1FF	2F	2a
.	2A	4g
.	.	4f
=26	=26	=26
1C	2G	2e
.	1c	2.a
1F	.	.
.	.	4g
.	2A	2.f
1C	1G	.
.	.	4e
.	.	4f
.	.	4g
=27	=27	=27
2FF	2F	2a
2C	2E	2.g
2AA	2A	.
.	.	4f
2GG	2B-	4e
.	.	4d
1C	1G	2.e
.	.	4d
=28	=28	=28
0.FF	0.F	0.f
!!LO:LB:i:g=z
=29|!	=29|!	=29|!
*M2/1	*M2/1	*M2/1
*met(C)	*met(C)	*met(C)
!!!OMD: Que puis je avoir vous meffait
!!section: Que puis je avoir vous meffait
1C	1c	1e
2C	2c	2e
2C	2c	2e
=30	=30	=30
1.G	1.B-	1.d
2E	2G	2e
=31	=31	=31
1D	2A	2f
.	2B-	4e
.	.	4d
1C	2c	2e
.	2e	4d
.	.	4c
=32	=32	=32
0GG	0d	1B-
.	.	1r
=33	=33	=33
1G	2r	1B-
.	2d	.
2G	2d	2B-
2G	2d	2B-
=34	=34	=34
1A	2c	1c
.	2A	.
2G	2B-	2d
4F	2c	2e
4E	.	.
=35	=35	=35
2D	1d	2.f
4C	.	.
4BB-	.	4g
2.C	2c	2.e
.	[2G	.
4GG	.	4d
=36	=36	=36
1C	2G]	4d
.	.	4c
.	2E	2.c
1GG	1D	.
.	.	4Bni
.	.	4Bni
.	.	4A
=37	=37	=37
2AA	2C	1c
2FF	1F	.
2BB-	.	2r
2AA	2C	2c
=38	=38	=38
1GG	2D	2B-
.	2E	2G
2r	1F	[1A
2FF	.	.
=39	=39	=39
1FF	2r	1A]
.	2F	.
1C	2G	2r
.	2A	2c
=40	=40	=40
2BB-	2B-	2d
2C	2G	2e
2D	2F	1f
2BB-	4E	.
.	4D	.
=41	=41	=41
2C	2C	2e
2AA	1F	2c
1GG	.	2d
.	2E	4c
.	.	4B-
=42	=42	=42
1FF	2.F	2.A
.	4E	4G
1r	2F	2A
.	2G	2B-
=43	=43	=43
1CN	2EN	2GN
.	2C	1c
1GG	1D	.
.	.	2Bni
=44	=44	=44
1C	2C	2c
.	1c	2e
1G	.	1d
.	2Bni	.
=45	=45	=45
1.C	2c	2r
.	4B-	1e
.	4A	.
.	2.G	.
2BB-	.	2d
.	4F	.
=46	=46	=46
2C	2E	2c
4BB-	4D	1g
4AA	4C	.
1GG	1BB-	.
.	.	2f
=47	=47	=47
2.AA	2C	2e
.	2E	4d
4C	.	4c
1GG	2D	2.B-
.	[2G	.
.	.	4c
=48	=48	=48
2C	2G]	2.e
2AA	2C	.
.	.	4d
2BB-	2D	4d
.	.	4c
2C	2E	2c
=49	=49	=49
2GG	2D	2B-
2AA	2C	1c
1GG	1D	.
.	.	2Bni
=50	=50	=50
0Gl	0Cl	0cl
=||	=||	=||
*-	*-	*-
!!!RDF**kern: l=long note in original notation
!!!RDF**kern: i=editorial accidental
!!!RDF**kern: N=signum congruentiae
!!!ENC: Chris Gage 10-11-2016
!!!END: 2018/12/03/
!!!EED: Jesse Rodin
!!!EEV: 2018/12/07/
!!!ONB: Translated from MusicXML and edited on 2018/12/07/ by Craig Sapp
!!muse2ps: C^@{COM}\n@{SMS}, @{folio}; also @{SMS2}^v95,95,150i2c90
